!!! OTL: Berkowitz483
!!! Chapter: 1
!!! Section: IV
!!! Page: 120
!!! Mode: 
!!! Encoder: DJB
**kern
*staff1
*I"Piano
=1-
*clefF4
*k[f#c#g#d#]
*e:
*M4/4
4r
4r
4r
4BB/
=2
2G#\
4AA#/
4BB/
=3
2A\
8r
4AA#/
8BB/
=4
4A#\
4c#\
4B\
4F##\
=5
4G#\
[4A\
6A\]
6E\
6C#/
=6
4BB/
4AA/
6F#\
6D#\
6BB/
=7
4c#\
4B\
4E\
4F#\
=8
4.G#\
16A\LL
16G#\JJ
4F#\
4E\
=9
!!linebreak:original
2.B\
8r
8BB/
=10
2G#\
6r
6AA#/
6BB/
=11
4A\
2AA#/
4BB/
=12
4A#\
4c#\
4B\
4E\
=13
2d#\
4c#\
8r
8C#/
=14
2B\
4A\
4A#\
=15
4c#\
4B\
6A\
6C#/
6D#\
=16
4G#\
4Gn\
4.F#\
8BB/
=17
2.A\
4D#\
=18
!!linebreak:original
2E\
2r
==
*-
